Flat-Remix-Blue-Dark/status/scalable/16/package-reinstall.svg

<svg xmlns="http://www.w3.org/2000/svg" width="36pt" height="36pt" version="1.1" viewBox="0 0 36 36"> <g> <path style="fill:rgb(4.705%,63.137%,36.862%)" d="M 36 34.195312 L 36 1.796875 C 36 0.800781 35.195312 -0.00390625 34.199219 -0.00390625 L 1.800781 -0.00390625 C 0.804688 -0.00390625 0 0.800781 0 1.796875 L 0 34.195312 C 0 35.1875 0.804688 35.996094 1.800781 35.996094 L 34.199219 35.996094 C 35.195312 35.996094 36 35.1875 36 34.195312 Z M 36 34.195312"/> <path style="fill:rgb(100.000%,100.000%,100.000%)" d="M 6.75 6.75 L 6.75 29.25 L 15.75 29.25 L 15.75 24.75 L 11.25 24.75 L 11.25 11.25 L 24.75 11.25 L 24.75 20.25 L 20.25 20.25 L 27 29.25 L 33.75 20.25 L 29.25 20.25 L 29.25 6.75 Z M 6.75 6.75"/> </g> </svg>

<svg width="16" height="16" version="1.1" viewBox="0 0 12 12" xmlns="http://www.w3.org/2000/svg"><g transform="matrix(.33333 0 0 .33333 2.4e-7 .0013023)"><path d="m36 34.195v-32.398c0-0.99609-0.80469-1.8008-1.8008-1.8008h-32.398c-0.99609 0-1.8008 0.80469-1.8008 1.8008v32.398c0 0.99219 0.80469 1.8008 1.8008 1.8008h32.398c0.99609 0 1.8008-0.80859 1.8008-1.8008z" fill="#0aa15c"/><path d="m6.75 6.75v22.5h9v-4.5h-4.5v-13.5h13.5v9h-4.5l6.75 9 6.75-9h-4.5v-13.5z" fill="#fff"/></g></svg>
